app/dist/common/images/archtis.svg

<svg height="18" width="18" xmlns="http://www.w3.org/2000/svg"><path d="m0 0h18v18h-18z" fill="#f0f3fa"/><path d="m7 10.25v2.5l2.02 1.25 1.98-1.25v-2.5l-1.98-1.25z" fill="#9a9a9a"/><path d="m9.28 8.75 1.98 1.25 2.02-1.25v-2.5l-2.02-1.25-1.98 1.25z" fill="#303030"/><path d="m4.76 6.25v2.5l2.02 1.25 1.98-1.25v-2.5l-1.98-1.25z" fill="#cd0000"/></svg>

<!-- by TradingView --><svg xmlns="http://www.w3.org/2000/svg" width="18" height="18"><path fill="#F0F3FA" d="M0 0h18v18H0z"/><path d="M7 10.25v2.5L9.02 14 11 12.75v-2.5L9.02 9 7 10.25z" fill="#9A9A9A"/><path d="M9.28 8.75L11.26 10l2.02-1.25v-2.5L11.26 5 9.28 6.25v2.5z" fill="#303030"/><path d="M4.76 6.25v2.5L6.78 10l1.98-1.25v-2.5L6.78 5 4.76 6.25z" fill="#CD0000"/></svg>
